X: 39688
T: Tension On The Shore
R: reel
M: 4/4
K: Dminor
DAFG - GGFG|GFGA GFDC|DAFG - GGFG|Afec defg|
aAgA fAeA|fAeA dcAG|GFGA GFDE|FDGF D2DC:|
|:DAdA fAdA|Aagf gfdc|Ad~d2 Adfa|gfdc defg|
aAgA fAeA|fAeA dcAG|GFGA GFDE|FDGF D2DC:|
|:DBAB GAFG|EC~C2 CEGc|AF~F2 FdcA|BGAF GFDC|
1DBAB GAFG|EC~C2 CEGA|DAGE FADA|GFGA GFDC:|
2DFBE GcFA|dGce Adfa|gfga gfde|fdgf dfga||
|:bgab g2af|gaf2 gefg-|[M:3/2]ggde fdgf dfga|
M:4/4
bgab g2af|gaf2 gefg-|1 [M:3/2]ggde fdgf dfga:|2 [M:3/2]ggde fdgf dcAF||

